X: 25744
T: Mary O'Neill's
R: reel
M: 4/4
K: Gmajor
|~B3e dBGA|B2Ac BG~G2|~B3e dBGA|1 BdAd ~G3A:|2 BdAd ~G3z||
|:g2dc Bcde|d2ag fdad|g2dc Bcde|dBcA BG~G2:|

